src/images/schools.svg

<svg fill="none" height="30" viewBox="0 0 42 30" width="42" xmlns="http://www.w3.org/2000/svg"><g fill="#54656f"><path d="m9.06736 22.4h-2.98925v3h2.98925z"/><path d="m8.96774 16.6h-2.98925v3h2.98925z"/><path d="m35.871 22.4h-2.9893v3h2.9893z"/><path d="m35.871 16.6h-2.9893v3h2.9893z"/><path d="m25.7076 11.2h-2.9893v3h2.9893z"/><path d="m25.6078 5.5h-2.9892v3h2.9892z"/><path d="m19.2309 11.2h-2.9893v3h2.9893z"/><path d="m19.2309 16.6h-2.9893v3h2.9893z"/><path d="m25.7076 16.6h-2.9893v3h2.9893z"/><path d="m19.1311 5.5h-2.9892v3h2.9892z"/><path d="m40.853 11.7h-9.9641v-9.7h.9964c.5979 0 .9964-.4.9964-1s-.3985-1-.9964-1h-1.9928-17.9355-1.99284c-.59785 0-.99642.4-.99642 1s.39857 1 .99642 1h.99644v9.7h-9.964184c-.59785 0-.996416.4-.996416 1s.398566 1 .996416 1h.996414v15.3c0 .6.39857 1 .99642 1h8.96775 4.9821 7.9713 4.9821 8.9677c.5979 0 .9964-.4.9964-1v-15.3h.9964c.5979 0 .9965-.4.9965-1s-.3986-1-.9965-1zm-36.86734 2.3h6.97494v14h-6.97494zm8.96774-1v-11h15.9427v11 15h-2.9893v-4h.9964c.5979 0 .9964-.4.9964-1s-.3985-1-.9964-1h-1.9928-7.9713-1.9929c-.5978 0-.9964.4-.9964 1s.3986 1 .9964 1h.9965v4h-2.9893zm4.9821 15v-4h5.9785v4zm19.9283 0h-6.9749v-14h6.9749z"/></g></svg>

<svg width="42" height="30" viewBox="0 0 42 30" fill="none" xmlns="http://www.w3.org/2000/svg">
<path d="M9.06736 22.4H6.07811V25.4H9.06736V22.4Z" fill="#54656F"/>
<path d="M8.96774 16.6H5.97849V19.6H8.96774V16.6Z" fill="#54656F"/>
<path d="M35.871 22.4H32.8817V25.4H35.871V22.4Z" fill="#54656F"/>
<path d="M35.871 16.6H32.8817V19.6H35.871V16.6Z" fill="#54656F"/>
<path d="M25.7076 11.2H22.7183V14.2H25.7076V11.2Z" fill="#54656F"/>
<path d="M25.6078 5.5H22.6186V8.5H25.6078V5.5Z" fill="#54656F"/>
<path d="M19.2309 11.2H16.2416V14.2H19.2309V11.2Z" fill="#54656F"/>
<path d="M19.2309 16.6H16.2416V19.6H19.2309V16.6Z" fill="#54656F"/>
<path d="M25.7076 16.6H22.7183V19.6H25.7076V16.6Z" fill="#54656F"/>
<path d="M19.1311 5.5H16.1419V8.5H19.1311V5.5Z" fill="#54656F"/>
<path d="M40.853 11.7H30.8889V2H31.8853C32.4832 2 32.8817 1.6 32.8817 1C32.8817 0.4 32.4832 0 31.8853 0H29.8925H11.957H9.96416C9.36631 0 8.96774 0.4 8.96774 1C8.96774 1.6 9.36631 2 9.96416 2H10.9606V11.7H0.996416C0.398566 11.7 0 12.1 0 12.7C0 13.3 0.398566 13.7 0.996416 13.7H1.99283V29C1.99283 29.6 2.3914 30 2.98925 30H11.957H16.9391H24.9104H29.8925H38.8602C39.4581 30 39.8566 29.6 39.8566 29V13.7H40.853C41.4509 13.7 41.8495 13.3 41.8495 12.7C41.8495 12.1 41.4509 11.7 40.853 11.7ZM3.98566 14H10.9606V28H3.98566V14ZM12.9534 13V2H28.8961V13V28H25.9068V24H26.9032C27.5011 24 27.8996 23.6 27.8996 23C27.8996 22.4 27.5011 22 26.9032 22H24.9104H16.9391H14.9462C14.3484 22 13.9498 22.4 13.9498 23C13.9498 23.6 14.3484 24 14.9462 24H15.9427V28H12.9534V13ZM17.9355 28V24H23.914V28H17.9355ZM37.8638 28H30.8889V14H37.8638V28Z" fill="#54656F"/>
</svg>
